public/icons/picto-thumb.svg

<svg fill="none" height="39" viewBox="0 0 39 39" width="39" xmlns="http://www.w3.org/2000/svg"><path d="m32.9033 25.0484c3.0653-7.3986-.4489-15.88059-7.8491-18.94517s-15.8841.4488-18.94937 7.84737c-3.06526 7.3985.4489 15.8806 7.84907 18.9451 7.4002 3.0646 15.8842-.4488 18.9494-7.8473z" fill="#e9ffe9"/><g fill="#00a99d"><path d="m14.3317 15.7893h-4.08c-.49283 0-.89232.3994-.89232.8921v9.5029c0 .4927.39949.8921.89232.8921h4.08c.4928 0 .8923-.3994.8923-.8921v-9.5029c0-.4927-.3995-.8921-.8923-.8921z"/><path d="m30.216 17.0241c.0239-.1945.006-.3918-.0524-.5787-.0584-.187-.156-.3593-.2864-.5056-.1304-.1462-.2904-.263-.4695-.3424-.1791-.0795-.3731-.1198-.569-.1184-1.3437-.0808-2.6911-.0808-4.0348 0-.0212.0009-.0424-.0024-.0623-.0098-.02-.0073-.0383-.0185-.0539-.0329s-.0282-.0318-.0371-.051c-.0089-.0193-.014-.0402-.0148-.0614.0841-1.8101.763-2.0493.6466-3.8788-.0301-.3501-.138-.6891-.3158-.9922-.1779-.3031-.4212-.5626-.7123-.75964-.4849-.25858-1.707-.40726-1.7652.91154 0 .3749-.0388.8533-.097 1.17-.3686 2.1075-2.3924 3.5491-4.1124 4.5899-.4591.2715-.8599.5301-1.1962.7757-.1128.0876-.2515.1353-.3944.1358h-.4009c-.043 0-.0856.0085-.1252.0252-.0397.0166-.0756.041-.1057.0717s-.0538.0671-.0697.1071c-.0158.0399-.0236.0827-.0227.1257v7.0399c0 .0874.0348.1713.0966.2331s.1457.0966.2332.0966h.3944c.1421-.0015.2807.044.3944.1293 1.6698 1.0939 3.6164 1.6904 5.6125 1.7195h1.3837c1.7717 0 3.233-.1228 3.7568-.7628l.0776-.1164c.1021-.1815.1555-.3864.1552-.5947v-.2974c.0211-.1874-.0078-.3771-.084-.5498-.0761-.1726-.1966-.3219-.3493-.4328.1911-.0013.3798-.0417.5547-.1186.1749-.0768.3323-.1886.4624-.3284.1302-.1398.2304-.3047.2946-.4847.0641-.1799.0909-.371.0785-.5616v-.3685c-.0354-.2073-.1187-.4035-.2433-.573-.1246-.1694-.287-.3075-.4744-.4031h.0582c.3347.0163.6626-.098.9146-.3187.2521-.2206.4087-.5305.4368-.8643v-.6465c0-.4913-.472-.7369-.7824-.9632.355-.0249.6866-.1862.9253-.4501.2386-.264.3659-.61.355-.9656z"/></g></svg>

<svg width="39" height="39" viewBox="0 0 39 39" fill="none" xmlns="http://www.w3.org/2000/svg">
<path d="M32.9033 25.0484C35.9686 17.6498 32.4544 9.16781 25.0542 6.10323C17.654 3.03865 9.1701 6.55203 6.10483 13.9506C3.03957 21.3491 6.55373 29.8312 13.9539 32.8957C21.3541 35.9603 29.8381 32.4469 32.9033 25.0484Z" fill="#E9FFE9"/>
<path d="M14.3317 15.7893H10.2517C9.75887 15.7893 9.35938 16.1887 9.35938 16.6814V26.1843C9.35938 26.677 9.75887 27.0764 10.2517 27.0764H14.3317C14.8245 27.0764 15.224 26.677 15.224 26.1843V16.6814C15.224 16.1887 14.8245 15.7893 14.3317 15.7893Z" fill="#00A99D"/>
<path d="M30.216 17.0241C30.2399 16.8296 30.222 16.6323 30.1636 16.4454C30.1052 16.2584 30.0076 16.0861 29.8772 15.9398C29.7468 15.7936 29.5868 15.6768 29.4077 15.5974C29.2286 15.5179 29.0346 15.4776 28.8387 15.479C27.495 15.3982 26.1476 15.3982 24.8039 15.479C24.7827 15.4799 24.7615 15.4766 24.7416 15.4692C24.7216 15.4619 24.7033 15.4507 24.6877 15.4363C24.6721 15.4219 24.6595 15.4045 24.6506 15.3853C24.6417 15.366 24.6366 15.3451 24.6358 15.3239C24.7199 13.5138 25.3988 13.2746 25.2824 11.4451C25.2523 11.095 25.1444 10.756 24.9666 10.4529C24.7887 10.1498 24.5454 9.8903 24.2543 9.69326C23.7694 9.43468 22.5473 9.286 22.4891 10.6048C22.4891 10.9797 22.4503 11.4581 22.3921 11.7748C22.0235 13.8823 19.9997 15.3239 18.2797 16.3647C17.8206 16.6362 17.4198 16.8948 17.0835 17.1404C16.9707 17.228 16.832 17.2757 16.6891 17.2762H16.2882C16.2452 17.2762 16.2026 17.2847 16.163 17.3014C16.1233 17.318 16.0874 17.3424 16.0573 17.3731C16.0272 17.4038 16.0035 17.4402 15.9876 17.4802C15.9718 17.5201 15.964 17.5629 15.9649 17.6059V24.6458C15.9649 24.7332 15.9997 24.8171 16.0615 24.8789C16.1233 24.9407 16.2072 24.9755 16.2947 24.9755H16.6891C16.8312 24.974 16.9698 25.0195 17.0835 25.1048C18.7533 26.1987 20.6999 26.7952 22.696 26.8243C23.6077 26.8243 23.3426 26.8243 24.0797 26.8243C25.8514 26.8243 27.3127 26.7015 27.8365 26.0615L27.9141 25.9451C28.0162 25.7636 28.0696 25.5587 28.0693 25.3504V25.053C28.0904 24.8656 28.0615 24.6759 27.9853 24.5032C27.9092 24.3306 27.7887 24.1813 27.636 24.0704C27.8271 24.0691 28.0158 24.0287 28.1907 23.9518C28.3656 23.875 28.523 23.7632 28.6531 23.6234C28.7833 23.4836 28.8835 23.3187 28.9477 23.1387C29.0118 22.9588 29.0386 22.7677 29.0262 22.5771V22.2086C28.9908 22.0013 28.9075 21.8051 28.7829 21.6356C28.6583 21.4662 28.4959 21.3281 28.3085 21.2325H28.3667C28.7014 21.2488 29.0293 21.1345 29.2813 20.9138C29.5334 20.6932 29.69 20.3833 29.7181 20.0495V19.403C29.7181 18.9117 29.2461 18.6661 28.9357 18.4398C29.2907 18.4149 29.6223 18.2536 29.861 17.9897C30.0996 17.7257 30.2269 17.3797 30.216 17.0241Z" fill="#00A99D"/>
</svg>
